X:1
T: The Killashandra Lasses
C:
R:Jig
Q:180
K:G
M:6/8
L:1/16
D2|G2A2G2 B2A2G2|d2B2G2 B2A2G2|A2B2A2 A2B2d2|e2c2A2A4D2|G2A2G2 B2A2G2|d2B2G2 B2A2G2|A2B2c2 B2A2B2|G2E2E2E4D2|
G2A2G2 B2A2G2|d2B2G2 B2A2G2|A2B2A2 A2B2d2|e2c2A2A4D2|G2A2G2 B2A2G2|d2B2G2 B2A2G2|A2B2c2 B2A2B2|G2E2E2E4d2|
e2f2g2 f2e2d2|e2f2g2 d2B2G2|A2B2A2 A2B2d2|e2c2A2A4d2|e2f2g2 f2e2d2|e2f2g2 d2B2G2|A2B2c2 B2A2B2|G2E2E2E4d2|
e2f2g2 f2e2d2|e2f2g2 d2B2G2|A2B2A2 A2B2d2|e2c2A2A4d2|b2a2g2 a2g2f2|g2f2e2 d2B2G2|A2B2c2 B2A2B2|G2E2E2E4||
